new-site/typesense.org/assets/images/typesense_logo_white.svg

<svg fill="none" height="58" viewBox="0 0 263 58" width="263" xmlns="http://www.w3.org/2000/svg"><g fill="#fff"><path d="m15.8574 16.646c.1162.58.1743 1.1407.1743 1.682 0 .5027-.0581 1.044-.1743 1.624l-7.37686-.058v19.488c0 1.624.75512 2.436 2.26536 2.436h4.4145c.2711.6573.4066 1.3147.4066 1.972s-.0387 1.0633-.1162 1.218c-1.7813.232-3.6206.348-5.51811.348-3.75622 0-5.63433-1.6047-5.63433-4.814v-20.648l-4.124102.058c-.1161722-.58-.174258-1.1213-.174258-1.624 0-.5413.0580858-1.102.174258-1.682l4.124102.058v-6.09c0-1.044.15489-1.77866.46468-2.204.30979-.464.91002-.696 1.80067-.696h1.56831l.34852.348v8.7z"/><path d="m43.9647 16.936-7.9578 27.202c-1.4715 4.988-3.0398 8.5067-4.705 10.556-1.6651 2.0493-4.1628 3.074-7.493 3.074-1.7039 0-3.2722-.2513-4.705-.754-.1162-1.0827.1936-2.1267.9294-3.132 1.2004.4253 2.4783.638 3.8336.638 2.0524 0 3.6207-.696 4.705-2.088s2.0717-3.5573 2.9624-6.496l.1742-.58c-1.0068-.0773-1.7813-.3093-2.3234-.696-.5034-.3867-.9294-1.102-1.2779-2.146l-8.132-25.52c1.2004-.5027 2.0524-.754 2.5558-.754 1.123 0 1.8781.6767 2.2653 2.03l4.5888 14.558c.1549.464 1.0456 3.48 2.672 9.048.0774.2707.271.406.5808.406l7.0865-25.636c.5034-.1547 1.1617-.232 1.9749-.232.8519 0 1.5683.116 2.1492.348z"/><path d="m55.1258 43.21v11.484c0 1.044-.1549 1.7787-.4647 2.204-.3098.464-.9294.696-1.8588.696h-1.5683l-.3485-.348v-40.426l.3485-.348h1.5103c.9293 0 1.5489.2513 1.8587.754.3485.464.5228 1.2373.5228 2.32v.29c2.3234-2.5907 5.0922-3.886 8.3063-3.886 3.2915 0 5.7698 1.334 7.435 4.002 1.6651 2.6293 2.4976 6.2833 2.4976 10.962 0 2.2813-.3097 4.3307-.9293 6.148-.5809 1.8173-1.3747 3.364-2.3816 4.64-.968 1.2373-2.091 2.204-3.3689 2.9-1.2779.6573-2.5945.986-3.9499.986-2.6719 0-5.2083-.7927-7.6092-2.378zm0-18.85v14.906c2.3621 1.74 4.5888 2.61 6.6799 2.61 2.091 0 3.8143-.928 5.1696-2.784s2.033-4.6593 2.033-8.41c0-1.856-.1742-3.4607-.5228-4.814-.3098-1.392-.7357-2.5327-1.2779-3.422-.5421-.928-1.181-1.6047-1.9168-2.03-.697-.464-1.4521-.696-2.2653-.696-1.549 0-3.0205.406-4.4146 1.218-1.394.812-2.5558 1.9527-3.4851 3.422z"/><path d="m102.778 32.19h-18.0071c.1936 6.5733 2.6913 9.86 7.4931 9.86 2.6332 0 5.4407-.812 8.422-2.436.852.7733 1.375 1.7593 1.569 2.958-3.1756 2.1653-6.7382 3.248-10.688 3.248-2.0137 0-3.7369-.3673-5.1697-1.102-1.4328-.7733-2.6139-1.8173-3.5432-3.132-.8907-1.3533-1.549-2.9387-1.9749-4.756-.426-1.8173-.639-3.8087-.639-5.974 0-2.204.2517-4.2147.7551-6.032.5422-1.8173 1.3166-3.3833 2.3235-4.698 1.0068-1.3147 2.2072-2.3393 3.6013-3.074 1.4328-.7347 3.0592-1.102 4.8792-1.102 1.7813 0 3.369.3287 4.763.986 1.4328.6187 2.6139 1.4887 3.5437 2.61.968 1.0827 1.703 2.3973 2.207 3.944.503 1.508.755 3.132.755 4.872 0 .696-.039 1.3727-.116 2.03-.039.6187-.097 1.218-.174 1.798zm-18.0071-3.306h13.9406v-.754c0-2.668-.5615-4.814-1.6845-6.438s-2.8074-2.436-5.0534-2.436c-2.2073 0-3.9305.87-5.1697 2.61-1.2004 1.74-1.8781 4.0793-2.033 7.018z"/><path d="m108.756 43.094c.039-.8507.271-1.7787.697-2.784.465-1.044.988-1.856 1.569-2.436 3.059 1.6627 5.75 2.494 8.074 2.494 1.277 0 2.304-.2513 3.078-.754.813-.5027 1.22-1.1793 1.22-2.03 0-1.3533-1.046-2.436-3.137-3.248l-3.252-1.218c-4.88-1.7787-7.319-4.6207-7.319-8.526 0-1.392.251-2.6293.755-3.712.542-1.1213 1.278-2.0687 2.207-2.842.968-.812 2.111-1.4307 3.427-1.856 1.317-.4253 2.788-.638 4.415-.638.735 0 1.549.058 2.439.174.93.116 1.859.29 2.788.522.93.1933 1.82.4253 2.672.696s1.588.5607 2.208.87c0 .9667-.194 1.972-.581 3.016s-.91 1.8173-1.569 2.32c-3.059-1.3533-5.711-2.03-7.957-2.03-1.007 0-1.801.2513-2.382.754-.581.464-.871 1.0827-.871 1.856 0 1.1987.968 2.146 2.904 2.842l3.543 1.276c2.556.8893 4.454 2.1073 5.693 3.654s1.859 3.3447 1.859 5.394c0 2.7453-1.027 4.9493-3.079 6.612-2.052 1.624-4.995 2.436-8.829 2.436-3.756 0-7.28-.9473-10.572-2.842z"/><path d="m159.664 33.176h-16.031c.116 2.1267.6 3.8087 1.452 5.046.891 1.1987 2.42 1.798 4.589 1.798 2.246 0 4.821-.6573 7.725-1.972 1.123 1.16 1.84 2.6873 2.149 4.582-3.098 2.204-6.815 3.306-11.152 3.306-4.105 0-7.222-1.2567-9.352-3.77-2.091-2.552-3.137-6.322-3.137-11.31 0-2.32.271-4.408.814-6.264.542-1.8947 1.336-3.4993 2.381-4.814 1.046-1.3533 2.324-2.3973 3.834-3.132s3.233-1.102 5.169-1.102c1.975 0 3.718.3093 5.228.928 1.51.58 2.788 1.4307 3.834 2.552 1.045 1.0827 1.82 2.378 2.323 3.886.542 1.508.813 3.1513.813 4.93 0 .9667-.058 1.8947-.174 2.784-.116.8507-.271 1.7013-.465 2.552zm-11.21-12.18c-3.021 0-4.647 2.2813-4.879 6.844h9.642v-.696c0-1.856-.387-3.3447-1.162-4.466-.774-1.1213-1.975-1.682-3.601-1.682z"/><path d="m191.498 25.752v12.644c0 2.4747.407 4.3113 1.22 5.51-1.239 1.0827-2.73 1.624-4.473 1.624-1.665 0-2.807-.3673-3.427-1.102-.619-.7733-.929-1.972-.929-3.596v-13.514c0-1.74-.213-2.958-.639-3.654s-1.22-1.044-2.381-1.044c-2.053 0-3.97.928-5.751 2.784v19.72c-.581.116-1.2.1933-1.859.232-.619.0387-1.258.058-1.917.058-.658 0-1.316-.0193-1.974-.058-.62-.0387-1.22-.116-1.801-.232v-28.71l.348-.406h2.905c2.168 0 3.524 1.16 4.066 3.48 2.827-2.436 5.634-3.654 8.422-3.654s4.841.9087 6.157 2.726c1.356 1.7787 2.033 4.176 2.033 7.192z"/><path d="m197.591 43.094c.039-.8507.271-1.7787.697-2.784.465-1.044.988-1.856 1.569-2.436 3.059 1.6627 5.75 2.494 8.074 2.494 1.278 0 2.304-.2513 3.078-.754.813-.5027 1.22-1.1793 1.22-2.03 0-1.3533-1.045-2.436-3.137-3.248l-3.252-1.218c-4.88-1.7787-7.319-4.6207-7.319-8.526 0-1.392.251-2.6293.755-3.712.542-1.1213 1.278-2.0687 2.207-2.842.968-.812 2.111-1.4307 3.427-1.856 1.317-.4253 2.788-.638 4.415-.638.736 0 1.549.058 2.439.174.93.116 1.859.29 2.788.522.93.1933 1.821.4253 2.672.696.852.2707 1.588.5607 2.208.87 0 .9667-.194 1.972-.581 3.016s-.91 1.8173-1.568 2.32c-3.06-1.3533-5.712-2.03-7.958-2.03-1.007 0-1.801.2513-2.382.754-.581.464-.871 1.0827-.871 1.856 0 1.1987.968 2.146 2.904 2.842l3.543 1.276c2.556.8893 4.454 2.1073 5.693 3.654s1.859 3.3447 1.859 5.394c0 2.7453-1.027 4.9493-3.079 6.612-2.052 1.624-4.995 2.436-8.829 2.436-3.756 0-7.28-.9473-10.572-2.842z"/><path d="m248.5 33.176h-16.032c.116 2.1267.6 3.8087 1.452 5.046.891 1.1987 2.42 1.798 4.589 1.798 2.246 0 4.821-.6573 7.725-1.972 1.123 1.16 1.84 2.6873 2.149 4.582-3.097 2.204-6.815 3.306-11.152 3.306-4.105 0-7.222-1.2567-9.352-3.77-2.091-2.552-3.136-6.322-3.136-11.31 0-2.32.271-4.408.813-6.264.542-1.8947 1.336-3.4993 2.381-4.814 1.046-1.3533 2.324-2.3973 3.834-3.132s3.233-1.102 5.17-1.102c1.974 0 3.717.3093 5.227.928 1.511.58 2.788 1.4307 3.834 2.552 1.045 1.0827 1.82 2.378 2.323 3.886.543 1.508.814 3.1513.814 4.93 0 .9667-.059 1.8947-.175 2.784-.116.8507-.271 1.7013-.464 2.552zm-11.211-12.18c-3.02 0-4.647 2.2813-4.879 6.844h9.642v-.696c0-1.856-.387-3.3447-1.162-4.466-.774-1.1213-1.975-1.682-3.601-1.682z"/><path d="m257.506 53.244v-53.069999c.58-.1160006 1.239-.174001 1.975-.174001.774 0 1.49.0580004 2.149.174001v53.069999c-.659.116-1.375.174-2.149.174-.736 0-1.395-.058-1.975-.174z"/></g></svg>

<svg width="263" height="58" viewBox="0 0 263 58" fill="none" xmlns="http://www.w3.org/2000/svg">
<path d="M15.8574 16.646C15.9736 17.226 16.0317 17.7867 16.0317 18.328C16.0317 18.8307 15.9736 19.372 15.8574 19.952L8.48054 19.894V39.382C8.48054 41.006 9.23566 41.818 10.7459 41.818H15.1604C15.4315 42.4753 15.567 43.1327 15.567 43.79C15.567 44.4473 15.5283 44.8533 15.4508 45.008C13.6695 45.24 11.8302 45.356 9.93269 45.356C6.17647 45.356 4.29836 43.7513 4.29836 40.542V19.894L0.174258 19.952C0.0580858 19.372 0 18.8307 0 18.328C0 17.7867 0.0580858 17.226 0.174258 16.646L4.29836 16.704V10.614C4.29836 9.57 4.45325 8.83534 4.76304 8.41C5.07283 7.946 5.67306 7.714 6.56371 7.714H8.13202L8.48054 8.062V16.762L15.8574 16.646Z" fill="white"/>
<path d="M43.9647 16.936L36.0069 44.138C34.5354 49.126 32.9671 52.6447 31.3019 54.694C29.6368 56.7433 27.1391 57.768 23.8089 57.768C22.105 57.768 20.5367 57.5167 19.1039 57.014C18.9877 55.9313 19.2975 54.8873 20.0333 53.882C21.2337 54.3073 22.5116 54.52 23.8669 54.52C25.9193 54.52 27.4876 53.824 28.5719 52.432C29.6562 51.04 30.6436 48.8747 31.5343 45.936L31.7085 45.356C30.7017 45.2787 29.9272 45.0467 29.3851 44.66C28.8817 44.2733 28.4557 43.558 28.1072 42.514L19.9752 16.994C21.1756 16.4913 22.0276 16.24 22.531 16.24C23.654 16.24 24.4091 16.9167 24.7963 18.27L29.3851 32.828C29.54 33.292 30.4307 36.308 32.0571 41.876C32.1345 42.1467 32.3281 42.282 32.6379 42.282L39.7244 16.646C40.2278 16.4913 40.8861 16.414 41.6993 16.414C42.5512 16.414 43.2676 16.53 43.8485 16.762L43.9647 16.936Z" fill="white"/>
<path d="M55.1258 43.21V54.694C55.1258 55.738 54.9709 56.4727 54.6611 56.898C54.3513 57.362 53.7317 57.594 52.8023 57.594H51.234L50.8855 57.246V16.82L51.234 16.472H52.7443C53.6736 16.472 54.2932 16.7233 54.603 17.226C54.9515 17.69 55.1258 18.4633 55.1258 19.546V19.836C57.4492 17.2453 60.218 15.95 63.4321 15.95C66.7236 15.95 69.2019 17.284 70.8671 19.952C72.5322 22.5813 73.3647 26.2353 73.3647 30.914C73.3647 33.1953 73.055 35.2447 72.4354 37.062C71.8545 38.8793 71.0607 40.426 70.0538 41.702C69.0858 42.9393 67.9628 43.906 66.6849 44.602C65.407 45.2593 64.0904 45.588 62.735 45.588C60.0631 45.588 57.5267 44.7953 55.1258 43.21ZM55.1258 24.36V39.266C57.4879 41.006 59.7146 41.876 61.8057 41.876C63.8967 41.876 65.62 40.948 66.9753 39.092C68.3306 37.236 69.0083 34.4327 69.0083 30.682C69.0083 28.826 68.8341 27.2213 68.4855 25.868C68.1757 24.476 67.7498 23.3353 67.2076 22.446C66.6655 21.518 66.0266 20.8413 65.2908 20.416C64.5938 19.952 63.8387 19.72 63.0255 19.72C61.4765 19.72 60.005 20.126 58.6109 20.938C57.2169 21.75 56.0551 22.8907 55.1258 24.36Z" fill="white"/>
<path d="M102.778 32.19H84.7709C84.9645 38.7633 87.4622 42.05 92.264 42.05C94.8972 42.05 97.7047 41.238 100.686 39.614C101.538 40.3873 102.061 41.3733 102.255 42.572C99.0794 44.7373 95.5168 45.82 91.567 45.82C89.5533 45.82 87.8301 45.4527 86.3973 44.718C84.9645 43.9447 83.7834 42.9007 82.8541 41.586C81.9634 40.2327 81.3051 38.6473 80.8792 36.83C80.4532 35.0127 80.2402 33.0213 80.2402 30.856C80.2402 28.652 80.4919 26.6413 80.9953 24.824C81.5375 23.0067 82.3119 21.4407 83.3188 20.126C84.3256 18.8113 85.526 17.7867 86.9201 17.052C88.3529 16.3173 89.9793 15.95 91.7993 15.95C93.5806 15.95 95.1683 16.2787 96.5623 16.936C97.9951 17.5547 99.1762 18.4247 100.106 19.546C101.074 20.6287 101.809 21.9433 102.313 23.49C102.816 24.998 103.068 26.622 103.068 28.362C103.068 29.058 103.029 29.7347 102.952 30.392C102.913 31.0107 102.855 31.61 102.778 32.19ZM84.7709 28.884H98.7115V28.13C98.7115 25.462 98.15 23.316 97.027 21.692C95.904 20.068 94.2196 19.256 91.9736 19.256C89.7663 19.256 88.0431 20.126 86.8039 21.866C85.6035 23.606 84.9258 25.9453 84.7709 28.884Z" fill="white"/>
<path d="M108.756 43.094C108.795 42.2433 109.027 41.3153 109.453 40.31C109.918 39.266 110.441 38.454 111.022 37.874C114.081 39.5367 116.772 40.368 119.096 40.368C120.373 40.368 121.4 40.1167 122.174 39.614C122.987 39.1113 123.394 38.4347 123.394 37.584C123.394 36.2307 122.348 35.148 120.257 34.336L117.005 33.118C112.125 31.3393 109.686 28.4973 109.686 24.592C109.686 23.2 109.937 21.9627 110.441 20.88C110.983 19.7587 111.719 18.8113 112.648 18.038C113.616 17.226 114.759 16.6073 116.075 16.182C117.392 15.7567 118.863 15.544 120.49 15.544C121.225 15.544 122.039 15.602 122.929 15.718C123.859 15.834 124.788 16.008 125.717 16.24C126.647 16.4333 127.537 16.6653 128.389 16.936C129.241 17.2067 129.977 17.4967 130.597 17.806C130.597 18.7727 130.403 19.778 130.016 20.822C129.629 21.866 129.106 22.6393 128.447 23.142C125.388 21.7887 122.736 21.112 120.49 21.112C119.483 21.112 118.689 21.3633 118.108 21.866C117.527 22.33 117.237 22.9487 117.237 23.722C117.237 24.9207 118.205 25.868 120.141 26.564L123.684 27.84C126.24 28.7293 128.138 29.9473 129.377 31.494C130.616 33.0407 131.236 34.8387 131.236 36.888C131.236 39.6333 130.209 41.8373 128.157 43.5C126.105 45.124 123.162 45.936 119.328 45.936C115.572 45.936 112.048 44.9887 108.756 43.094Z" fill="white"/>
<path d="M159.664 33.176H143.633C143.749 35.3027 144.233 36.9847 145.085 38.222C145.976 39.4207 147.505 40.02 149.674 40.02C151.92 40.02 154.495 39.3627 157.399 38.048C158.522 39.208 159.239 40.7353 159.548 42.63C156.45 44.834 152.733 45.936 148.396 45.936C144.291 45.936 141.174 44.6793 139.044 42.166C136.953 39.614 135.907 35.844 135.907 30.856C135.907 28.536 136.178 26.448 136.721 24.592C137.263 22.6973 138.057 21.0927 139.102 19.778C140.148 18.4247 141.426 17.3807 142.936 16.646C144.446 15.9113 146.169 15.544 148.105 15.544C150.08 15.544 151.823 15.8533 153.333 16.472C154.843 17.052 156.121 17.9027 157.167 19.024C158.212 20.1067 158.987 21.402 159.49 22.91C160.032 24.418 160.303 26.0613 160.303 27.84C160.303 28.8067 160.245 29.7347 160.129 30.624C160.013 31.4747 159.858 32.3253 159.664 33.176ZM148.454 20.996C145.433 20.996 143.807 23.2773 143.575 27.84H153.217V27.144C153.217 25.288 152.83 23.7993 152.055 22.678C151.281 21.5567 150.08 20.996 148.454 20.996Z" fill="white"/>
<path d="M191.498 25.752V38.396C191.498 40.8707 191.905 42.7073 192.718 43.906C191.479 44.9887 189.988 45.53 188.245 45.53C186.58 45.53 185.438 45.1627 184.818 44.428C184.199 43.6547 183.889 42.456 183.889 40.832V27.318C183.889 25.578 183.676 24.36 183.25 23.664C182.824 22.968 182.03 22.62 180.869 22.62C178.816 22.62 176.899 23.548 175.118 25.404V45.124C174.537 45.24 173.918 45.3173 173.259 45.356C172.64 45.3947 172.001 45.414 171.342 45.414C170.684 45.414 170.026 45.3947 169.368 45.356C168.748 45.3173 168.148 45.24 167.567 45.124V16.414L167.915 16.008H170.82C172.988 16.008 174.344 17.168 174.886 19.488C177.713 17.052 180.52 15.834 183.308 15.834C186.096 15.834 188.149 16.7427 189.465 18.56C190.821 20.3387 191.498 22.736 191.498 25.752Z" fill="white"/>
<path d="M197.591 43.094C197.63 42.2433 197.862 41.3153 198.288 40.31C198.753 39.266 199.276 38.454 199.857 37.874C202.916 39.5367 205.607 40.368 207.931 40.368C209.209 40.368 210.235 40.1167 211.009 39.614C211.822 39.1113 212.229 38.4347 212.229 37.584C212.229 36.2307 211.184 35.148 209.092 34.336L205.84 33.118C200.96 31.3393 198.521 28.4973 198.521 24.592C198.521 23.2 198.772 21.9627 199.276 20.88C199.818 19.7587 200.554 18.8113 201.483 18.038C202.451 17.226 203.594 16.6073 204.91 16.182C206.227 15.7567 207.698 15.544 209.325 15.544C210.061 15.544 210.874 15.602 211.764 15.718C212.694 15.834 213.623 16.008 214.552 16.24C215.482 16.4333 216.373 16.6653 217.224 16.936C218.076 17.2067 218.812 17.4967 219.432 17.806C219.432 18.7727 219.238 19.778 218.851 20.822C218.464 21.866 217.941 22.6393 217.283 23.142C214.223 21.7887 211.571 21.112 209.325 21.112C208.318 21.112 207.524 21.3633 206.943 21.866C206.362 22.33 206.072 22.9487 206.072 23.722C206.072 24.9207 207.04 25.868 208.976 26.564L212.519 27.84C215.075 28.7293 216.973 29.9473 218.212 31.494C219.451 33.0407 220.071 34.8387 220.071 36.888C220.071 39.6333 219.044 41.8373 216.992 43.5C214.94 45.124 211.997 45.936 208.163 45.936C204.407 45.936 200.883 44.9887 197.591 43.094Z" fill="white"/>
<path d="M248.5 33.176H232.468C232.584 35.3027 233.068 36.9847 233.92 38.222C234.811 39.4207 236.34 40.02 238.509 40.02C240.755 40.02 243.33 39.3627 246.234 38.048C247.357 39.208 248.074 40.7353 248.383 42.63C245.286 44.834 241.568 45.936 237.231 45.936C233.126 45.936 230.009 44.6793 227.879 42.166C225.788 39.614 224.743 35.844 224.743 30.856C224.743 28.536 225.014 26.448 225.556 24.592C226.098 22.6973 226.892 21.0927 227.937 19.778C228.983 18.4247 230.261 17.3807 231.771 16.646C233.281 15.9113 235.004 15.544 236.941 15.544C238.915 15.544 240.658 15.8533 242.168 16.472C243.679 17.052 244.956 17.9027 246.002 19.024C247.047 20.1067 247.822 21.402 248.325 22.91C248.868 24.418 249.139 26.0613 249.139 27.84C249.139 28.8067 249.08 29.7347 248.964 30.624C248.848 31.4747 248.693 32.3253 248.5 33.176ZM237.289 20.996C234.269 20.996 232.642 23.2773 232.41 27.84H242.052V27.144C242.052 25.288 241.665 23.7993 240.89 22.678C240.116 21.5567 238.915 20.996 237.289 20.996Z" fill="white"/>
<path d="M257.506 53.244V0.174001C258.086 0.0580004 258.745 0 259.481 0C260.255 0 260.971 0.0580004 261.63 0.174001V53.244C260.971 53.36 260.255 53.418 259.481 53.418C258.745 53.418 258.086 53.36 257.506 53.244Z" fill="white"/>
</svg>
